src/img/icons/dots.svg

<svg id="ico" xmlns="http://www.w3.org/2000/svg" width="179" height="102" fill="#d8d8d8" xmlns:v="https://vecta.io/nano"><path d="M179 0v3h-3V0h3zm-11 0v3h-3V0h3zm-11 0v3h-3V0h3zm-11 0v3h-3V0h3zm-11 0v3h-3V0h3zm-11 0v3h-3V0h3zm-11 0v3h-3V0h3zm-11 0v3h-3V0h3zM91 0v3h-3V0h3zM80 0v3h-3V0h3zM69 0v3h-3V0h3zM58 0v3h-3V0h3zM47 0v3h-3V0h3zM36 0v3h-3V0h3zM25 0v3h-3V0h3zM14 0v3h-3V0h3zM3 0v3H0V0h3zm176 11v3h-3v-3h3zm-11 0v3h-3v-3h3zm-11 0v3h-3v-3h3zm-11 0v3h-3v-3h3zm-11 0v3h-3v-3h3zm-11 0v3h-3v-3h3zm-11 0v3h-3v-3h3zm-11 0v3h-3v-3h3zm-11 0v3h-3v-3h3zm-11 0v3h-3v-3h3zm-11 0v3h-3v-3h3zm-11 0v3h-3v-3h3zm-11 0v3h-3v-3h3zm-11 0v3h-3v-3h3zm-11 0v3h-3v-3h3zm-11 0v3h-3v-3h3zM3 11v3H0v-3h3zm176 11v3h-3v-3h3zm-11 0v3h-3v-3h3zm-11 0v3h-3v-3h3zm-11 0v3h-3v-3h3zm-11 0v3h-3v-3h3zm-11 0v3h-3v-3h3zm-11 0v3h-3v-3h3zm-11 0v3h-3v-3h3zm-11 0v3h-3v-3h3zm-11 0v3h-3v-3h3zm-11 0v3h-3v-3h3zm-11 0v3h-3v-3h3zm-11 0v3h-3v-3h3zm-11 0v3h-3v-3h3zm-11 0v3h-3v-3h3zm-11 0v3h-3v-3h3zM3 22v3H0v-3h3zm176 11v3h-3v-3h3zm-11 0v3h-3v-3h3zm-11 0v3h-3v-3h3zm-11 0v3h-3v-3h3zm-11 0v3h-3v-3h3zm-11 0v3h-3v-3h3zm-11 0v3h-3v-3h3zm-11 0v3h-3v-3h3zm-11 0v3h-3v-3h3zm-11 0v3h-3v-3h3zm-11 0v3h-3v-3h3zm-11 0v3h-3v-3h3zm-11 0v3h-3v-3h3zm-11 0v3h-3v-3h3zm-11 0v3h-3v-3h3zm-11 0v3h-3v-3h3zM3 33v3H0v-3h3zm176 11v3h-3v-3h3zm-11 0v3h-3v-3h3zm-11 0v3h-3v-3h3zm-11 0v3h-3v-3h3zm-11 0v3h-3v-3h3zm-11 0v3h-3v-3h3zm-11 0v3h-3v-3h3zm-11 0v3h-3v-3h3zm-11 0v3h-3v-3h3zm-11 0v3h-3v-3h3zm-11 0v3h-3v-3h3zm-11 0v3h-3v-3h3zm-11 0v3h-3v-3h3zm-11 0v3h-3v-3h3zm-11 0v3h-3v-3h3zm-11 0v3h-3v-3h3zM3 44v3H0v-3h3zm176 11v3h-3v-3h3zm-11 0v3h-3v-3h3zm-11 0v3h-3v-3h3zm-11 0v3h-3v-3h3zm-11 0v3h-3v-3h3zm-11 0v3h-3v-3h3zm-11 0v3h-3v-3h3zm-11 0v3h-3v-3h3zm-11 0v3h-3v-3h3zm-11 0v3h-3v-3h3zm-11 0v3h-3v-3h3zm-11 0v3h-3v-3h3zm-11 0v3h-3v-3h3zm-11 0v3h-3v-3h3zm-11 0v3h-3v-3h3zm-11 0v3h-3v-3h3zM3 55v3H0v-3h3zm176 11v3h-3v-3h3zm-11 0v3h-3v-3h3zm-11 0v3h-3v-3h3zm-11 0v3h-3v-3h3zm-11 0v3h-3v-3h3zm-11 0v3h-3v-3h3zm-11 0v3h-3v-3h3zm-11 0v3h-3v-3h3zm-11 0v3h-3v-3h3zm-11 0v3h-3v-3h3zm-11 0v3h-3v-3h3zm-11 0v3h-3v-3h3zm-11 0v3h-3v-3h3zm-11 0v3h-3v-3h3zm-11 0v3h-3v-3h3zm-11 0v3h-3v-3h3zM3 66v3H0v-3h3zm176 11v3h-3v-3h3zm-11 0v3h-3v-3h3zm-11 0v3h-3v-3h3zm-11 0v3h-3v-3h3zm-11 0v3h-3v-3h3zm-11 0v3h-3v-3h3zm-11 0v3h-3v-3h3zm-11 0v3h-3v-3h3zm-11 0v3h-3v-3h3zm-11 0v3h-3v-3h3zm-11 0v3h-3v-3h3zm-11 0v3h-3v-3h3zm-11 0v3h-3v-3h3zm-11 0v3h-3v-3h3zm-11 0v3h-3v-3h3zm-11 0v3h-3v-3h3zM3 77v3H0v-3h3zm176 11v3h-3v-3h3zm-11 0v3h-3v-3h3zm-11 0v3h-3v-3h3zm-11 0v3h-3v-3h3zm-11 0v3h-3v-3h3zm-11 0v3h-3v-3h3zm-11 0v3h-3v-3h3zm-11 0v3h-3v-3h3zm-11 0v3h-3v-3h3zm-11 0v3h-3v-3h3zm-11 0v3h-3v-3h3zm-11 0v3h-3v-3h3zm-11 0v3h-3v-3h3zm-11 0v3h-3v-3h3zm-11 0v3h-3v-3h3zm-11 0v3h-3v-3h3zM3 88v3H0v-3h3zm176 11v3h-3v-3h3zm-11 0v3h-3v-3h3zm-11 0v3h-3v-3h3zm-11 0v3h-3v-3h3zm-11 0v3h-3v-3h3zm-11 0v3h-3v-3h3zm-11 0v3h-3v-3h3zm-11 0v3h-3v-3h3zm-11 0v3h-3v-3h3zm-11 0v3h-3v-3h3zm-11 0v3h-3v-3h3zm-11 0v3h-3v-3h3zm-11 0v3h-3v-3h3zm-11 0v3h-3v-3h3zm-11 0v3h-3v-3h3zm-11 0v3h-3v-3h3zM3 99v3H0v-3h3z"/></svg>

<svg width="179" height="102" viewBox="0 0 179 102" fill="none" xmlns="http://www.w3.org/2000/svg">
<path d="M179 0V3H176V0L179 0Z" fill="#D8D8D8"/>
<path d="M168 0V3H165V0L168 0Z" fill="#D8D8D8"/>
<path d="M157 0V3H154V0L157 0Z" fill="#D8D8D8"/>
<path d="M146 0V3H143V0L146 0Z" fill="#D8D8D8"/>
<path d="M135 0V3H132V0L135 0Z" fill="#D8D8D8"/>
<path d="M124 0V3H121V0L124 0Z" fill="#D8D8D8"/>
<path d="M113 0V3H110V0L113 0Z" fill="#D8D8D8"/>
<path d="M102 0V3H99V0L102 0Z" fill="#D8D8D8"/>
<path d="M91 0V3H88V0L91 0Z" fill="#D8D8D8"/>
<path d="M80 0V3H77V0L80 0Z" fill="#D8D8D8"/>
<path d="M69 0V3H66V0L69 0Z" fill="#D8D8D8"/>
<path d="M58 0V3H55V0L58 0Z" fill="#D8D8D8"/>
<path d="M47 0V3H44V0L47 0Z" fill="#D8D8D8"/>
<path d="M36 0V3H33V0L36 0Z" fill="#D8D8D8"/>
<path d="M25 0V3H22V0L25 0Z" fill="#D8D8D8"/>
<path d="M14 0V3H11V0L14 0Z" fill="#D8D8D8"/>
<path d="M3 0V3H0V0L3 0Z" fill="#D8D8D8"/>
<path d="M179 11V14H176V11H179Z" fill="#D8D8D8"/>
<path d="M168 11V14H165V11H168Z" fill="#D8D8D8"/>
<path d="M157 11V14H154V11H157Z" fill="#D8D8D8"/>
<path d="M146 11V14H143V11H146Z" fill="#D8D8D8"/>
<path d="M135 11V14H132V11H135Z" fill="#D8D8D8"/>
<path d="M124 11V14H121V11H124Z" fill="#D8D8D8"/>
<path d="M113 11V14H110V11H113Z" fill="#D8D8D8"/>
<path d="M102 11V14H99V11H102Z" fill="#D8D8D8"/>
<path d="M91 11V14H88V11H91Z" fill="#D8D8D8"/>
<path d="M80 11V14H77V11H80Z" fill="#D8D8D8"/>
<path d="M69 11V14H66V11H69Z" fill="#D8D8D8"/>
<path d="M58 11V14H55V11H58Z" fill="#D8D8D8"/>
<path d="M47 11V14H44V11H47Z" fill="#D8D8D8"/>
<path d="M36 11V14H33V11H36Z" fill="#D8D8D8"/>
<path d="M25 11V14H22V11H25Z" fill="#D8D8D8"/>
<path d="M14 11V14H11V11H14Z" fill="#D8D8D8"/>
<path d="M3 11V14H0V11H3Z" fill="#D8D8D8"/>
<path d="M179 22V25H176V22H179Z" fill="#D8D8D8"/>
<path d="M168 22V25H165V22H168Z" fill="#D8D8D8"/>
<path d="M157 22V25H154V22H157Z" fill="#D8D8D8"/>
<path d="M146 22V25H143V22H146Z" fill="#D8D8D8"/>
<path d="M135 22V25H132V22H135Z" fill="#D8D8D8"/>
<path d="M124 22V25H121V22H124Z" fill="#D8D8D8"/>
<path d="M113 22V25H110V22H113Z" fill="#D8D8D8"/>
<path d="M102 22V25H99V22H102Z" fill="#D8D8D8"/>
<path d="M91 22V25H88V22H91Z" fill="#D8D8D8"/>
<path d="M80 22V25H77V22H80Z" fill="#D8D8D8"/>
<path d="M69 22V25H66V22H69Z" fill="#D8D8D8"/>
<path d="M58 22V25H55V22H58Z" fill="#D8D8D8"/>
<path d="M47 22V25H44V22H47Z" fill="#D8D8D8"/>
<path d="M36 22V25H33V22H36Z" fill="#D8D8D8"/>
<path d="M25 22V25H22V22H25Z" fill="#D8D8D8"/>
<path d="M14 22V25H11V22H14Z" fill="#D8D8D8"/>
<path d="M3 22V25H0V22H3Z" fill="#D8D8D8"/>
<path d="M179 33V36H176V33H179Z" fill="#D8D8D8"/>
<path d="M168 33V36H165V33H168Z" fill="#D8D8D8"/>
<path d="M157 33V36H154V33H157Z" fill="#D8D8D8"/>
<path d="M146 33V36H143V33H146Z" fill="#D8D8D8"/>
<path d="M135 33V36H132V33H135Z" fill="#D8D8D8"/>
<path d="M124 33V36H121V33H124Z" fill="#D8D8D8"/>
<path d="M113 33V36H110V33H113Z" fill="#D8D8D8"/>
<path d="M102 33V36H99V33H102Z" fill="#D8D8D8"/>
<path d="M91 33V36H88V33H91Z" fill="#D8D8D8"/>
<path d="M80 33V36H77V33H80Z" fill="#D8D8D8"/>
<path d="M69 33V36H66V33H69Z" fill="#D8D8D8"/>
<path d="M58 33V36H55V33H58Z" fill="#D8D8D8"/>
<path d="M47 33V36H44V33H47Z" fill="#D8D8D8"/>
<path d="M36 33V36H33V33H36Z" fill="#D8D8D8"/>
<path d="M25 33V36H22V33H25Z" fill="#D8D8D8"/>
<path d="M14 33V36H11V33H14Z" fill="#D8D8D8"/>
<path d="M3 33V36H0V33H3Z" fill="#D8D8D8"/>
<path d="M179 44V47H176V44H179Z" fill="#D8D8D8"/>
<path d="M168 44V47H165V44H168Z" fill="#D8D8D8"/>
<path d="M157 44V47H154V44H157Z" fill="#D8D8D8"/>
<path d="M146 44V47H143V44H146Z" fill="#D8D8D8"/>
<path d="M135 44V47H132V44H135Z" fill="#D8D8D8"/>
<path d="M124 44V47H121V44H124Z" fill="#D8D8D8"/>
<path d="M113 44V47H110V44H113Z" fill="#D8D8D8"/>
<path d="M102 44V47H99V44H102Z" fill="#D8D8D8"/>
<path d="M91 44V47H88V44H91Z" fill="#D8D8D8"/>
<path d="M80 44V47H77V44H80Z" fill="#D8D8D8"/>
<path d="M69 44V47H66V44H69Z" fill="#D8D8D8"/>
<path d="M58 44V47H55V44H58Z" fill="#D8D8D8"/>
<path d="M47 44V47H44V44H47Z" fill="#D8D8D8"/>
<path d="M36 44V47H33V44H36Z" fill="#D8D8D8"/>
<path d="M25 44V47H22V44H25Z" fill="#D8D8D8"/>
<path d="M14 44V47H11V44H14Z" fill="#D8D8D8"/>
<path d="M3 44V47H0V44H3Z" fill="#D8D8D8"/>
<path d="M179 55V58H176V55H179Z" fill="#D8D8D8"/>
<path d="M168 55V58H165V55H168Z" fill="#D8D8D8"/>
<path d="M157 55V58H154V55H157Z" fill="#D8D8D8"/>
<path d="M146 55V58H143V55H146Z" fill="#D8D8D8"/>
<path d="M135 55V58H132V55H135Z" fill="#D8D8D8"/>
<path d="M124 55V58H121V55H124Z" fill="#D8D8D8"/>
<path d="M113 55V58H110V55H113Z" fill="#D8D8D8"/>
<path d="M102 55V58H99V55H102Z" fill="#D8D8D8"/>
<path d="M91 55V58H88V55H91Z" fill="#D8D8D8"/>
<path d="M80 55V58H77V55H80Z" fill="#D8D8D8"/>
<path d="M69 55V58H66V55H69Z" fill="#D8D8D8"/>
<path d="M58 55V58H55V55H58Z" fill="#D8D8D8"/>
<path d="M47 55V58H44V55H47Z" fill="#D8D8D8"/>
<path d="M36 55V58H33V55H36Z" fill="#D8D8D8"/>
<path d="M25 55V58H22V55H25Z" fill="#D8D8D8"/>
<path d="M14 55V58H11V55H14Z" fill="#D8D8D8"/>
<path d="M3 55V58H0V55H3Z" fill="#D8D8D8"/>
<path d="M179 66V69H176V66H179Z" fill="#D8D8D8"/>
<path d="M168 66V69H165V66H168Z" fill="#D8D8D8"/>
<path d="M157 66V69H154V66H157Z" fill="#D8D8D8"/>
<path d="M146 66V69H143V66H146Z" fill="#D8D8D8"/>
<path d="M135 66V69H132V66H135Z" fill="#D8D8D8"/>
<path d="M124 66V69H121V66H124Z" fill="#D8D8D8"/>
<path d="M113 66V69H110V66H113Z" fill="#D8D8D8"/>
<path d="M102 66V69H99V66H102Z" fill="#D8D8D8"/>
<path d="M91 66V69H88V66H91Z" fill="#D8D8D8"/>
<path d="M80 66V69H77V66H80Z" fill="#D8D8D8"/>
<path d="M69 66V69H66V66H69Z" fill="#D8D8D8"/>
<path d="M58 66V69H55V66H58Z" fill="#D8D8D8"/>
<path d="M47 66V69H44V66H47Z" fill="#D8D8D8"/>
<path d="M36 66V69H33V66H36Z" fill="#D8D8D8"/>
<path d="M25 66V69H22V66H25Z" fill="#D8D8D8"/>
<path d="M14 66V69H11V66H14Z" fill="#D8D8D8"/>
<path d="M3 66V69H0V66H3Z" fill="#D8D8D8"/>
<path d="M179 77V80H176V77H179Z" fill="#D8D8D8"/>
<path d="M168 77V80H165V77H168Z" fill="#D8D8D8"/>
<path d="M157 77V80H154V77H157Z" fill="#D8D8D8"/>
<path d="M146 77V80H143V77H146Z" fill="#D8D8D8"/>
<path d="M135 77V80H132V77H135Z" fill="#D8D8D8"/>
<path d="M124 77V80H121V77H124Z" fill="#D8D8D8"/>
<path d="M113 77V80H110V77H113Z" fill="#D8D8D8"/>
<path d="M102 77V80H99V77H102Z" fill="#D8D8D8"/>
<path d="M91 77V80H88V77H91Z" fill="#D8D8D8"/>
<path d="M80 77V80H77V77H80Z" fill="#D8D8D8"/>
<path d="M69 77V80H66V77H69Z" fill="#D8D8D8"/>
<path d="M58 77V80H55V77H58Z" fill="#D8D8D8"/>
<path d="M47 77V80H44V77H47Z" fill="#D8D8D8"/>
<path d="M36 77V80H33V77H36Z" fill="#D8D8D8"/>
<path d="M25 77V80H22V77H25Z" fill="#D8D8D8"/>
<path d="M14 77V80H11V77H14Z" fill="#D8D8D8"/>
<path d="M3 77V80H0V77H3Z" fill="#D8D8D8"/>
<path d="M179 88V91H176V88H179Z" fill="#D8D8D8"/>
<path d="M168 88V91H165V88H168Z" fill="#D8D8D8"/>
<path d="M157 88V91H154V88H157Z" fill="#D8D8D8"/>
<path d="M146 88V91H143V88H146Z" fill="#D8D8D8"/>
<path d="M135 88V91H132V88H135Z" fill="#D8D8D8"/>
<path d="M124 88V91H121V88H124Z" fill="#D8D8D8"/>
<path d="M113 88V91H110V88H113Z" fill="#D8D8D8"/>
<path d="M102 88V91H99V88H102Z" fill="#D8D8D8"/>
<path d="M91 88V91H88V88H91Z" fill="#D8D8D8"/>
<path d="M80 88V91H77V88H80Z" fill="#D8D8D8"/>
<path d="M69 88V91H66V88H69Z" fill="#D8D8D8"/>
<path d="M58 88V91H55V88H58Z" fill="#D8D8D8"/>
<path d="M47 88V91H44V88H47Z" fill="#D8D8D8"/>
<path d="M36 88V91H33V88H36Z" fill="#D8D8D8"/>
<path d="M25 88V91H22V88H25Z" fill="#D8D8D8"/>
<path d="M14 88V91H11V88H14Z" fill="#D8D8D8"/>
<path d="M3 88V91H0V88H3Z" fill="#D8D8D8"/>
<path d="M179 99V102H176V99H179Z" fill="#D8D8D8"/>
<path d="M168 99V102H165V99H168Z" fill="#D8D8D8"/>
<path d="M157 99V102H154V99H157Z" fill="#D8D8D8"/>
<path d="M146 99V102H143V99H146Z" fill="#D8D8D8"/>
<path d="M135 99V102H132V99H135Z" fill="#D8D8D8"/>
<path d="M124 99V102H121V99H124Z" fill="#D8D8D8"/>
<path d="M113 99V102H110V99H113Z" fill="#D8D8D8"/>
<path d="M102 99V102H99V99H102Z" fill="#D8D8D8"/>
<path d="M91 99V102H88V99H91Z" fill="#D8D8D8"/>
<path d="M80 99V102H77V99H80Z" fill="#D8D8D8"/>
<path d="M69 99V102H66V99H69Z" fill="#D8D8D8"/>
<path d="M58 99V102H55V99H58Z" fill="#D8D8D8"/>
<path d="M47 99V102H44V99H47Z" fill="#D8D8D8"/>
<path d="M36 99V102H33V99H36Z" fill="#D8D8D8"/>
<path d="M25 99V102H22V99H25Z" fill="#D8D8D8"/>
<path d="M14 99V102H11V99H14Z" fill="#D8D8D8"/>
<path d="M3 99V102H0V99H3Z" fill="#D8D8D8"/>
</svg>
